!!!!SEGMENT: pl-wn--mus-iii-89-502--001-003_zelenski-wladyslaw--z-kantaty-jubileuszowej-do-slow-deotymy-marsz-jagiellonski.krn
!!!cenid: 18xx:3761
!!!COM: Żeleński, Władysław
!!!COM-rismID: pe41024455
!!!CDT: 1837/07/06-1921/01/23
!!!CNT: Polish
!!!GTL: Z kantaty jubileuszowej do słów Deotymy
!!!OTL: Marsz jagielloński
!!!OMV: 003
!!!PDT:
!!!AGN:
!!!YEC: Copyright 2022 Narodowy Instytut Fryderyka Chopina (https://polishscores.org)
!!!YEM: License CC-BY-4.0 (https://creativecommons.org/licenses/by/4.0)
!!!SMS-siglum: PL-Wn
!!!SMS-shelfmark: Mus.III.89.502
!!!SMS-shelfwork: 001-003 G
!!!SMS-variant:
!!!SMS-altvar:
!!!NIFC-rismSourceID:
!!!NIFC-rismChildID:
!!!NIFC-islandoraID: none
!!!URL-pdf-islandora:
!!!URL-scan: https://polona2.pl/item/z-kantaty-jubileuszowej-do-slow-deotymy,ODMzNDMxMTA/0 @EN{Scan on Polona} @PL{Skany w portalu Polona}
!!!IIIF: https://polona2.pl/iiif/item/ODMzNDMxMTA/manifest.json
!!!ONB-nifc: UWAGA: części: 1. Elegia, 2. Polonez, 3. Marsz jagielloński
!!!AIN: 2 piano
!!!key: C
**kern	**dynam	**kern	**dynam
*part2	*	*part1	*
*staff2	*	*staff1	*
*I"Piano.	*	*I"Piano	*
*I'pf	*	*I'pf	*
*Ipiano	*	*Ipiano	*
*ICklav	*	*ICklav	*
*clefF4	*	*clefG2	*
*k[]	*	*k[]	*
*C:	*	*C:	*
*M4/4	*	*M4/4	*
*met(c)	*	*met(c)	*
*xywh-12:543,665,3631,1318	*	*xywh-12:543,665,3631,1318	*
4r	.	8.gL 8.G/	mf
.	.	16gJk 16G/	.
=1	=1	=1	=1
1r	.	2.g 2.G/	.
.	.	8.gL 8.G/	.
.	.	16gJk 16G/	.
=2	=2	=2	=2
1r	.	2.g 2.G/	.
.	.	8.gL 8.G/	.
.	.	16gJk 16G/	.
=3	=3	=3	=3
*	*	*^	*
*	*	*	*xywh-12:543,665,3631,1318	*
4r	.	4g/ 4G/	4ryy	p
4BB 4BBB/	.	8.gL 8.G/	4d\	.
.	.	16g/Jk	.	.
4C 4CC/	.	4g 4G/	2ryy	.
4BB 4BBB/	.	4g 4G/	.	.
*	*	*v	*v	*
=4	=4	=4	=4
4AA 4AAA/	.	[2cc [>2e [2c^/	.
(4GG#X (4GGG#X/	.	.	.
8.AAL 8.AAA/))	.	8.cc]L 8.e] 8.c/]	.
16BBJk 16BBB/	.	16bJk 16e 16d/	.
4C 4CC/	.	8.aL 8.e 8.c/	.
.	.	16gJk 16e 16B/	.
!!LO:LB:g=original
=5	=5	=5	=5
*	*	*^	*
*xywh-12:534,1959,3626,802	*	*xywh-12:534,1959,3626,802	*xywh-12:534,1959,3626,802	*
4C 4CC/	.	4f#/ 4e 4A/	4ryy	.
4BB 4BBB/	.	8.f#L 8.e 8.B/	4ryy	.
.	.	16f#Jk 16e 16B/	.	.
4AA 4AAA/	.	4f#/ 4e/ 4c/	4ryy	.
4BB 4BBB/	.	(8.g/L	4d#X 4B\	.
.	.	16a/Jk	.	.
*	*	*v	*v	*
=6	=6	=6	=6
((4E 4EE/	.	[2g [>2e [2B/)	.
!LO:N:acc=n	!	!	!
8.F#XL 8.FF#X/))	.	.	.
16F#Jk 16FF#/	.	.	.
4E 4EE/	.	8.g]L 8.e] 8.B/]	<
.	.	16bK 16g 16B/	.
4D 4DD/	.	8.cc 8.f 8.c/	.
.	.	16ddJk 16f 16d/	[
=7	=7	=7	=7
!	!	!LO:TX:b:i:t=poco	!
4C 4CC/	.	[2ee [2g [2e/	.
8.BBL 8.BBB/	.	.	<
16BBJk 16BBB/	.	.	.
4E 4EE/	.	8.ee]L 8.g] 8.e/]	.
.	.	16ddK 16g 16d/	.
4F#X 4FF#X/	.	8.cc 8.e 8.c/	.
.	.	16aJk 16e-X 16c/	.
=8	=8	=8	=8
*	*	*^	*
*	*	*	*xywh-12:534,1959,3626,802	*
4G 4GG/	.	4g/	4d 4B\	.
4Fn 4FFn/	.	8.g/L	4d 4B\	.
.	.	16g/Jk	.	.
4E 4EE/	.	8.gL 8.c 8.G/	2ryy	.
.	.	16bK 16g 16B/	.	.
4D 4DD/	.	8.cc 8.f 8.c/	.	.
.	.	16ddJk 16f 16d/	.	.
!!LO:LB:g=original
=9	=9	=9	=9	=9
*xywh-12:538,2752,3612,788	*	*xywh-12:538,2752,3612,788	*xywh-12:538,2752,3612,788	*
4C 4CC/	.	[2ee/	4g 4e\	.
8.GG#XL 8.GGG#X/	.	.	([<4b (<4f\	.
16GG#Jk 16GGG#/	.	.	.	.
4FF 4FFF/	.	8.ee]L 8.cc/)	(<4e\))	.
.	.	16ddK 16b/	.	.
4FF#X 4FFF#X/	.	8.cc 8.a 8.e/	4e/)yy	.
.	.	16aJk 16e-X 16c/	.	.
=10	=10	=10	=10	=10
4GG 4GGG/	.	4g/	4B\	.
4F 4FF/	.	8.g/L	4B\	.
.	.	16g/Jk	.	.
4E 4EE/	.	4g/ 4c/	4ryy	.
4D 4DD/	.	8.b-XL 8.B-X/	4g 4e\	.
.	.	16aJk 16A/	.	.
*	*	*v	*v	*
=11	=11	=11	=11
4C#X 4CC#X/	.	4a 4g 4A/	.
8.AAL 8.AAA^/	.	[4gg [4a [4g^\	f
16BBJk 16BBB/	.	.	.
4C# 4CC#/	.	8.gg]L 8.a] 8.g\]	.
.	.	16ggJk 16a 16g\	.
4AA 4AAA/	.	8.ffL 8.a 8.g\	.
.	.	16eeJk 16a 16g\	.
=12	=12	=12	=12
4D 4DD/	.	4ff 4a 4f'\	.
4E 4EE/	.	4ee 4a 4g'\	.
4F 4FF/	.	4dd 4a 4f/	.
4F#X 4FF#X/	.	[4cc [4a [4et/	.
.	.	16qqb/LL	.
.	.	16qqcc/JJ	.
!!LO:LB:g=original
=13	=13	=13	=13
*	*	*^	*
*xywh-12:529,3498,3654,806	*	*xywh-12:529,3498,3654,806	*xywh-12:529,3498,3654,806	*
4G 4GG/	.	4cc] 4a] 4e/]	4r	>
2GG 2GGG/	.	(8.a^/L	(<4f#X (4e-X\	.
.	.	16cc/Jk	.	.
.	.	4b/)	4fn 4d/))	.
4G 4GG/	.	(8.a/L	4f 4d\	.
.	.	16b/Jk	.	]]
*	*	*v	*v	*
=14	=14	=14	=14
8C 8CC/	.	8cc 8e 8c/)	p
8r	.	8r	.
4c 4C\	.	8.ccL 8.g 8.e/	.
.	.	16ccJk 16g 16e/	.
4C 4CC/	.	8.ccL 8.g 8.e/	.
.	.	(16e/Jk	.
4r	.	8.eeL 8.cc\)	.
.	.	16eeJk 16cc\	.
=15	=15	=15	=15
4A 4AA\	.	(4ee 4cc\	mf
2a 2A^\	.	8.dd#XL 8.b\)	.
.	.	16dd#Jk 16b\	.
.	.	4ee 4cc\	.
8.gL 8.G\	.	4dd# 4b\	.
16fJk 16F\	.	.	.
=16	=16	=16	=16
*	*	*^	*
*	*	*	*xywh-12:529,3498,3654,806	*
8.eL 8.E\	.	4ryy	4ee\ 4cc\	.
16dJk 16D\	.	.	.	.
8.cL 8.C\	.	2aa 2ee/	8.a\L	.
16BJk 16BB\	.	.	16b\Jk	<
4A 4AA\	.	.	4cc\	.
4d 4D\	.	(8.ggL 8.dd/	4a\	.
.	.	16ff/Jk	.	[[
*	*	*v	*v	*
!!LO:LB:g=original
=17	=17	=17	=17
*xywh-12:519,4263,3645,1050	*	*xywh-12:519,4263,3645,1050	*
4d 4E\	.	4ee 4b 4g#X\)	p
8.EL 8.EE/	.	4dd 4a 4f'/	.
16EJk 16EE/	.	.	.
4E 4EE/	.	4cc 4g# 4e'/	.
4E 4EE/	.	4b 4g# 4d'/	.
=18	=18	=18	=18
4AA 4AAA/	.	[2a [>2e [2c/	.
8.AL 8.AA/	.	.	.
16FJk 16FF/	.	.	.
8.EL 8.EE/	.	8.a]L 8.e] 8.c/]	<
16DK 16DD/	.	(16e/Jk	.
8.C 8.CC/	.	8.eeL 8.cc\)	.
16BBJk 16BBB/	.	16eeJk 16cc\	[[
=19	=19	=19	=19
4AA 4AAA/	.	4ee 4cc\	f
2a^ 2A\	.	(4dd#X 4b\	.
.	.	4ee 4cc\)	.
8.gL 8.G\	.	(4dd# 4b\	.
16fJk 16F\	.	.	.
=20	=20	=20	=20
*	*	*^	*
*	*	*	*xywh-12:519,4263,3645,1050	*
8.eL 8.E\	.	4ryy	4ee\ 4cc\)	.
16dJk 16D\	.	.	.	.
8.cL 8.C\	.	(4aa 4ee/	8.a\L	.
16BJk 16BB\	.	.	16b\Jk	.
4A 4AA\	.	8.aa/L)	4ee 4cc\	.
.	.	16gg/K	.	.
(4c (4C\	.	8.ff#X/	[4a\	.
.	.	16ee/Jk	.	.
!!LO:PB:g=original
=21	=21	=21	=21	=21
*xywh-13:282,637,3706,1016	*	*xywh-13:282,637,3706,1016	*xywh-13:282,637,3706,1016	*
4B 4BB\))	.	4dd#X/	4a\]	p
8.cL 8.C\	.	8.ee/L	8.a\L	.
16AJk 16AA\	.	16ff#X/Jk	16cc\Jk	.
4B 4BB\	.	4b/	4g\	.
4BB 4BBB/	.	4dd#/	(4aT\	.
.	.	.	16qqa/LL	.
.	.	.	16qqb/JJ	.
*	*	*v	*v	*
=22	=22	=22	=22
4E 4EE/	.	[2ee [2g\)	.
4e 4E\	.	.	.
4E 4EE/	.	8.ee]L 8.g/]	.
.	.	(>[16e/K	.
4r	.	8.g 8.e/])	.
.	.	16aJk 16f#X/	.
=23	=23	=23	=23
4r	.	[2b [2g/	.
!	!	!	!LO:DY:a
(4d#X\	.	.	>
4e\)	.	8.b]L 8.g/]	.
.	.	(>[16g/K	.
4r	.	8.b 8.g/])	]
.	.	(16ccJk 16a/	.
=24	=24	=24	=24
*	*	*^	*
*	*	*	*xywh-13:282,637,3706,1016	*
4r	.	[2dd/)	4b\	.
!	!	!LO:TX:b:i:t= cresc poco a poco	!	!LO:DY:a
(4A#X (4AA#X\	.	.	(4f#X\	>
4B 4BB\))	.	8.dd/L]	8g\)	.
.	.	.	8ryy	.
.	.	16g/Jk	.	.
4r	.	8.ddL 8.b 8.d/	4ryy	]
.	.	16eeJk 16cc#X 16e/	.	.
!!LO:LB:g=original
=25	=25	=25	=25	=25
*xywh-13:275,1638,3709,914	*	*xywh-13:275,1638,3709,914	*xywh-13:275,1638,3709,914	*
4r	.	[2ff [<2f/	4dd\	.
!	!	!	!	!LO:DY:a
(4A (4AA\	.	.	(4cc#X\	>
4B-X 4BB-X\))	.	8.ff]L 8.f\]	8.dd\)	.
.	.	([<16f\K	16ryy	]
4r	.	8.ff 8.dd 8.f\])	4ryy	.
.	.	16ffJk 16dd 16f\	.	.
=26	=26	=26	=26	=26
4r	.	[2ff [<2f/	4dd\	.
(4AA 4AAA/	.	.	(4cc#X\	.
4BB-X 4BBB-X/)	.	(4ff] (4f\]	4dd\)	.
4AA-X 4AAA-X/	.	8.ff#XL 8.f#X\))	8.ccn\L	.
.	.	16ff#Jk 16f#\	16cc\Jk	.
*	*	*v	*v	*
=27	=27	=27	=27
4GG 4GGG/	.	4gg 4b 4g\	f
*tremolo	*	*	*
32AA-X\LLL	.	(4ff 4cc 4f\	.
32A-X\	.	.	.
32AA-\	.	.	.
32A-\	.	.	.
32AA-\	.	.	.
32A-\	.	.	.
32AA-\	.	.	.
32A-\JJJ	.	.	.
4G 4GG/	.	4gg 4b 4g\)	.
4AA- 4AAA-X/	.	4ccc 4ff 4cc\	.
=28	=28	=28	=28
*	*	*^	*
*	*	*	*xywh-13:275,1638,3709,914	*
4GG 4GGG/	.	4bb 4gg 4dd 4b\	2ryy	ff
4r	.	8.gL 8.G/	.	.
.	.	16gJk 16G/	.	.
4r	.	[2g [<2G/	4r	.
4F 4FF/	.	.	4d/	.
!!LO:LB:g=original
=29	=29	=29	=29	=29
*xywh-13:247,2525,3772,906	*	*xywh-13:247,2525,3772,906	*xywh-13:247,2525,3772,906	*
4E 4EE/	.	4g] 4c 4G/]	4ryy	.
4D 4DD/	.	8.gL 8.G/	4f\	.
.	.	16gJk 16G/	.	.
4C 4CC/	.	4g 4e/ 4G/	4ryy	.
4BB 4BBB/	.	4g 4d/ 4G/	4ryy	.
*	*	*v	*v	*
=30	=30	=30	=30
4AA 4AAA/	.	[2cc [>2e [2c/	.
(4GG#X (4GGG#X/	.	.	.
8.AAL 8.AAA/))	.	8.cc]L 8.e] 8.c/]	.
16BBJk 16BBB/	.	16bK 16e 16d/	.
[4C [4CC/	.	8.a 8.e 8.c/	.
.	.	16gJk 16e 16B/	.
=31	=31	=31	=31
*	*	*^	*
*	*	*	*xywh-13:247,2525,3772,906	*
4C] 4CC/]	.	4f#X 4e/ 4A/	4ryy	.
4BB 4BBB/	.	8.f#L 8.e 8.B/	4ryy	>
.	.	16f#Jk 16e 16B/	.	.
4AA 4AAA/	.	4f# 4e/ 4c/	4ryy	.
4BB 4BBB/	.	(8.g/L	4d#X 4B\	.
.	.	16a/Jk	.	]
*	*	*v	*v	*
=32	=32	=32	=32
(4E (4EE/	.	[2g [2e [2B/)	.
8.FnL 8.FFn/))	.	.	<
16FJk 16FF/	.	.	.
4E 4EE/	.	8.g]L 8.e] 8.B/]	.
.	.	16bK 16g 16B/	.
4D 4DD/	.	8.cc 8.f 8.c/	.
.	.	16ddJk 16f 16d/	[[
!!LO:LB:g=original
=33	=33	=33	=33
*xywh-13:251,3428,3768,899	*	*xywh-13:251,3428,3768,899	*
4C 4CC/	.	[2ee [>2g [2e/	.
8.DL 8.DD/	.	.	.
16DJk 16DD/	.	.	.
4E 4EE/	.	8.ee]L 8.g] 8.e/]	.
.	.	16ddK 16g 16d/	.
4F#X 4FF#X/	.	8.cc 8.e 8.c/	.
.	.	16aJk 16e-X 16c/	.
=34	=34	=34	=34
*	*	*^	*
*	*	*	*xywh-13:251,3428,3768,899	*
4G 4GG/	.	4g 4d/ 4B/	4ryy	.
4Fn 4FFn/	.	8.g/L	4d 4B\	.
.	.	16g/Jk	.	.
4E 4EE/	.	8.gL 8.c 8.G/	2ryy	.
.	.	16bK 16g 16B/	.	.
4D 4DD/	.	8.cc 8.f 8.c/	.	.
.	.	16ddJk 16f 16d/	.	.
=35	=35	=35	=35	=35
4C 4CC/	.	[2ee/	4g 4e\	.
8.GG#XL 8.GGG#X/	.	.	((<4b (<4f\	.
16GG#Jk 16GGG#/	.	.	.	.
4AA 4AAA/	.	8.ee]L 8.cc/))	(4.e\)	.
.	.	16ddK 16b/	.	.
4FF#X 4FFF#X/	.	8.cc 8.a 8.e/)	.	.
.	.	.	8ryy	.
.	.	16aJk 16e-X 16c/	.	.
=36	=36	=36	=36	=36
4GG 4GGG/	.	4g/ 4d 4B/	4ryy	.
(4Fn (4FFn/	.	8.g/L	(<4d 4B\	.
.	.	16g/Jk	.	.
4E 4EE/))	.	4g/ 4c/)	4ryy	.
4D 4DD/	.	8.b-XL 8.B-X/	4g 4e\	.
.	.	16aJk 16A/	.	.
*	*	*v	*v	*
!!LO:LB:g=original
=37	=37	=37	=37
*xywh-13:239,4280,3792,938	*	*xywh-13:239,4280,3792,938	*
4C#X 4CC#X/	.	4a 4g 4A/	.
8.AAL 8.AAA/	.	[4gg [4a [4g\	.
16BBJk 16BBB/	.	.	.
4C# 4CC#/	.	8.gg]L 8.a] 8.g\]	.
.	.	16ggK 16a 16g\	.
4AA 4AAA/	.	8.ff 8.a 8.g\	.
.	.	16eeJk 16a 16g\	.
=38	=38	=38	=38
*	*	*^	*
*	*	*	*xywh-13:239,4280,3792,938	*
4D 4DD/	.	4ff 4a'\ 4f\	4ryy	.
4E 4EE/	.	4ee 4a'\ 4g\	4ryy	.
4F 4FF/	.	4dd 4a/ 4f'/	4ryy	.
(4F#X (4FF#X/	.	(4cc 4aT/	4e\	.
.	.	16qqb/LL	.	.
.	.	16qqcc/JJ	.	.
=39	=39	=39	=39	=39
4G 4GG/))	.	4ee/)	4g 4e\	>
2GG 2GGG/	.	(8.a/L	(4f#X 4e-X\	.
.	.	16cc/Jk	.	.
.	.	4b/)	4fn 4d\)	.
4G 4GG/	.	(8.a/L	4f 4d\	.
.	.	16b/Jk	.	]
*	*	*v	*v	*
=40	=40	=40	=40
8C 8CC/	.	8cc 8e 8c/)	p
8r	.	8r	.
4c 4C\	.	8.ccL 8.g 8.e/	.
.	.	16ccJk 16g 16e/	.
4C 4CC/	.	4cc 4g 4e/	.
4r	.	(4c/	.
!!LO:PB:g=original
=41||	=41||	=41||	=41||
*k[b-]	*	*k[b-]	*
*xywh-14:432,592,3741,1051	*	*xywh-14:432,592,3741,1051	*
!	!	!LO:TX:a:t=Con energia.	!
8FF/	.	8f/)	p
8r	.	8r	.
8.AL 8.C\	.	[4f^/	.
16AJk 16C\	.	.	.
8A 8C\	.	8.f/L]	.
8r	.	.	.
.	.	(>16g/K	.
(4B- (4C\	.	8.d/	.
.	.	16e/Jk	.
=42	=42	=42	=42
*	*	*^	*
*	*	*	*xywh-14:432,592,3741,1051	*
8A 8F\))	.	8.f/L)	2ryy	.
8r	.	.	.	.
.	.	(>16g/K	.	.
(4B- (4C\	.	8.d/	.	.
.	.	16e/Jk	.	.
8A 8F\))	.	8.f/L)	4ryy	.
8r	.	.	.	.
.	.	(>16g/K	.	.
(4F (4FF/	.	8.a/	(4f\	.
.	.	16b-/Jk	.	.
=43	=43	=43	=43	=43
8E 8EE/))	.	4cc/)	4g\)	.
8r	.	.	.	.
!LO:TUP:a	!	!	!	!
*Xtremolo	*	*	*	*
12GL 12E\	.	[4cc/	[4g [4c\	.
12G 12E\	.	.	.	.
12GJ 12E\	.	.	.	.
8G 8E\	.	(8.cc/L]	8g] 8c\]	.
8r	.	.	8ryy	.
.	.	16dd/K	.	.
*clefG2	*	*	*	*
(4a-X (4e/	.	8.bn/	4ryy	<
.	.	16dd/Jk	.	.
*	*	*v	*v	*
=44	=44	=44	=44
8g 8e-X/))	.	8.cc/L)	.
8r	.	.	.
.	.	(16dd/K	.
(4f#X (4d/	.	8.a/	[
.	.	16cc/Jk	.
8fn 8d-X/))	.	8.b-/L)	.
8r	.	.	.
.	.	(16b-/K	>
(4e-X (4cn/	.	8.f#X/	.
.	.	16a/Jk	]]
*clefF4	*	*	*
!!LO:LB:g=original
=45	=45	=45	=45
*xywh-14:428,1624,3725,860	*	*xywh-14:428,1624,3725,860	*
8d 8B-\))	.	8g/)	.
8r	.	8r	.
12dL 12B- 12G\	.	[4g^/	.
12d 12B- 12G\	.	.	.
12dJ 12B- 12G\	.	.	.
8d 8B- 8G\	.	8.g/L]	.
8r	.	.	.
.	.	(>16a/K	.
(4e-X 4c (>[4G\	.	8.f#X/	.
.	.	16a/Jk	.
=46	=46	=46	=46
*	*	*^	*
*	*	*	*xywh-14:428,1624,3725,860	*
8d 8B- 8G\]))	.	8.g/L)	2ryy	.
8r	.	.	.	.
.	.	(>16a/K	.	.
(4e-X 4c (>[4G\	.	8.f#X/	.	.
.	.	16a/Jk	.	.
8d 8B- 8G\]))	.	8.g/L)	4ryy	.
8r	.	.	.	.
.	.	(16a/Jk	.	.
(4G (4GG/	.	8.b-/L	(4g\	.
.	.	16cc/Jk	.	.
=47	=47	=47	=47	=47
8F 8FF/))	.	8dd 8a\))	4ryy	.
8r	.	8r	.	.
*Xtuplet	*	*	*	*
12AL 12F\	.	([4dd 4a/	[4d\	.
12A 12F\	.	.	.	.
12AJ 12F\	.	.	.	.
8Bn 8E\	.	8.dd/L])	4g#X 4d\]	<
8r	.	.	.	.
.	.	(16ff/Jk	.	.
(<[4e 4G#X\	.	8.ee/L	(4bn\	.
.	.	16dd/Jk	.	.
=48	=48	=48	=48	=48
8e] 8A\)	.	8.cc/L)	8a\)	[
8r	.	.	8r	.
.	.	(<16dd/Jk	.	.
(4e-X (4F#X\	.	8.a/L	4ryy	.
.	.	16cc/Jk	.	.
8d 8G\))	.	8.b-/L)	2ryy	>
8r	.	.	.	.
.	.	(16g/K	.	.
(4B- (4C\	.	8.d/	.	.
.	.	16e/Jk	.	]
*	*	*v	*v	*
!!LO:LB:g=original
=49	=49	=49	=49
*xywh-14:424,2465,3721,875	*	*xywh-14:424,2465,3721,875	*
4A 4F\))	.	8f/)	.
.	.	8r	.
!	!	!	!LO:DY:b
8r	.	[4ff [4f^\	p
12cL 12A 12F\	.	.	.
12c 12A 12F\	.	.	.
.	.	8.ff]L 8.f\]	.
12cJ 12A 12F\	.	.	.
8c 8A 8F\	.	.	.
.	.	(16ggK 16g\	.
(4B- (4C\	.	8.dd\	.
.	.	16eeJk 16e\	.
=50	=50	=50	=50
8A 8F\))	.	8.ffL 8.f\)	.
8r	.	.	.
.	.	(16ggK 16g\	.
(4B- (4C\	.	8.dd\	.
.	.	16eeJk 16e\	.
8A 8F\))	.	8.ffL 8.f\)	.
8r	.	.	.
.	.	(16ggK 16g\	.
(4A (4F\	.	8.aa 8.a\	.
.	.	16bb-Jk 16b-\	.
=51	=51	=51	=51
8G 8E\))	.	8ccc 8cc\)	.
*clefG2	*	*	*
8r	.	8r	.
12gL 12e/	.	[4ccc [4cc\	.
12g 12e/	.	.	.
12gJ 12e/	.	.	.
4g 4e/	.	8.ccc]L 8.cc\]	.
.	.	(16dddK 16dd\	.
(4a-X (4e/	.	8.bbn\	.
.	.	16ddd\Jk	<
=52	=52	=52	=52
8g 8e-X/))	.	8.ccc\L)	.
8r	.	.	.
.	.	(16dddK 16dd\	.
(4f#X (4d/	.	8.aa\	.
.	.	16ccc\K	.
8fn 8d-X/))	.	8.bb-\J)	.
8r	.	.	.
.	.	(16bb-KL 16b-\	.
(4e-X (4c/	.	8.ff#X\	.
.	.	16aa\Jk	[[
!!LO:LB:g=original
=53	=53	=53	=53
*xywh-14:409,3314,3760,860	*	*xywh-14:409,3314,3760,860	*
8d 8B-/))	.	8gg\)	.
*clefF4	*	*	*
8r	.	8r	.
!	!	!LO:TX:b:i:t=cresc.	!
12dL 12B- 12G\	.	[4ff [4g^\	.
12d 12B- 12G\	.	.	.
12dJ 12B- 12G\	.	.	.
4d 4B- 4G\	.	8.ff]L 8.g\]	.
.	.	(16aaK 16a\	.
(4e-X 4c (>[4G\	.	8.ff#X\)	.
.	.	(16aaJk 16a\	.
=54	=54	=54	=54
8d 8B- 8G\]))	.	8.ggL 8.g\)	.
8r	.	.	.
.	.	16aaK 16a\	.
(4B- (4G\	.	8.bb- 8.b-\	.
.	.	16cccJk 16cc\	.
8A 8F\))	.	8.dddL 8.dd\	.
8r	.	.	.
.	.	16fffK 16ff\	.
(4f 4Bn ((4G#X\	.	8.eee 8.ee\	.
.	.	16dddJk 16dd\	.
=55	=55	=55	=55
8e 8c 8A\)))	.	8.cccL 8.cc\	.
8r	.	.	.
.	.	(16dddK 16dd\	.
(4e-X 4A ((4F#X\	.	8.aa\	.
.	.	16ccc\Jk	.
8d 8B-X 8G\)))	.	8.bb-\L)	.
8r	.	.	.
.	.	(16ggK 16g\	>
(4B- 4C\	.	8.dd\	.
.	.	16ee\Jk	.
=56	=56	=56	=56
8A 8F\)	.	8ff\)	]
8r	.	8r	.
8.cL 8.A 8.F\	.	8.ffL 8.a 8.f\	p
16cJk 16A 16F\	.	16ffJk 16a 16f\	.
8c 8A 8F\	.	8ff 8a 8f\	<
8r	.	8r	.
4r	.	8.cccL 8.cc\	.
.	.	16eee-XJk 16ee-X\	.
!!LO:LB:g=original
=57||	=57||	=57||	=57||
*xywh-14:397,4134,3776,1102	*	*xywh-14:397,4134,3776,1102	*
*ped	*	*	*
!LO:TX:b:i:rj:t=con	!	!LO:TX:a:t=Cantabile e poco sostenuto.	!
4BB- 4BBB-/	.	[2ddd-X [2dd-X\	[
8.d-XL 8.B- 8.F\	.	.	.
16d-Jk 16B- 16F\	.	.	.
*	*	*Xtuplet	*
4d- 4B- 4F\	.	12ddd-]L 12dd-\]	.
.	.	(12bb- 12b-\	.
.	.	12ffJ 12f\	.
4G 4E-X 4D-X\	.	8.ggL 8.g\	.
.	.	16bb-Jk 16b-\	.
=58	=58	=58	=58
4C 4CC/	.	[2ee-X [2e-X/)	.
12cL 12A-X 12E-X\	.	.	.
12c 12A- 12E-\	.	.	.
12cJ 12A- 12E-\	.	.	.
4c 4A- 4E-\	.	8.ee-]L 8.e-/]	.
.	.	16ee-Jk 16e-/	.
4c 4A- 4En\	.	(8.aa-XL 8.a-X\	.
.	.	16ggJk 16g\	.
=59	=59	=59	=59
4DD-X/	.	[2ff [2f\)	.
12B-L 12A-X 12D-X\	.	.	.
12B- 12A- 12D-\	.	.	.
12B-J 12A- 12D-\	.	.	.
4B- 4A- 4D-\	.	12ff]L 12f\]	.
.	.	(12een 12en\	.
.	.	12ffJ 12f\	.
4B- 4A- 4Dn\	.	12ggL 12g\	.
.	.	12bb- 12b-\	.
.	.	12aa-XJ 12a-X\)	.
!!LO:PB:g=original
=60	=60	=60	=60
*xywh-15:299,652,3655,969	*	*xywh-15:299,652,3655,969	*
4EE-X/	.	2.gg 2.g\	.
8.B-L 8.G 8.E-X\	.	.	.
16B-Jk 16G 16E-\	.	.	.
4B- 4G 4E-\	.	.	.
4d-X 4G 4E-\	.	(8.bb-L 8.b-\	.
.	.	16ddd-XJk 16dd-X\	.
=61	=61	=61	=61
4EEn/	.	[2ccc [2cc\)	.
8.cL 8.B- 8.En\	.	.	.
16cJk 16B- 16E\	.	.	.
4c 4B- 4E\	.	12ccc]L 12cc\]	.
.	.	(12bb- 12b-\	.
.	.	12ddd-XJ 12dd-X\	.
4c 4B- 4E\	.	12cccL 12cc\	.
.	.	12gg 12g\	.
.	.	12bb-J 12b-\	.
=62	=62	=62	=62
4FF/	.	[2aa-X [2a-X\)	.
12cL 12A-X 12F\	.	.	.
12c 12A- 12F\	.	.	.
12cJ 12A- 12F\	.	.	.
4c 4A- 4F\	.	12aa-]L 12a-\]	.
.	.	(12ccc 12cc\	.
.	.	12eeenJ 12een\	.
4B- 4A- 4D-X\	.	8.gggL 8.gg\	.
.	.	16fffJk 16ff\	.
!!LO:LB:g=original
=63	=63	=63	=63
*xywh-15:291,1606,3678,906	*	*xywh-15:291,1606,3678,906	*
4E-X 4EE-X/	.	[2eee-X [2ee-X\)	.
8.cL 8.A-X 8.E-\	.	.	.
16cJk 16A- 16E-\	.	.	.
4c 4A- 4E-\	.	8.eee-]L 8.ee-\]	.
.	.	(16ffJk 16f\	.
4d-X 4G 4E-\	.	8.ggL 8.g\)	.
.	.	(16ddd-XJk 16dd-X\	.
=64	=64	=64	=64
4AA-X 4AAA-X/	.	2.ccc 2.cc\)	.
8.cL 8.A-X 8.E-X\	.	.	.
16cJk 16A- 16E-\	.	.	.
4c 4A- 4E-\	.	.	.
4r	.	(8.cccL 8.cc\	<
.	.	16eee-XJk 16ee-X\	[[
=65	=65	=65	=65
4BB- 4BBB-/	.	[2ddd-X [2dd-X\)	.
8.d-XL 8.B- 8.F\	.	.	.
16d-Jk 16B- 16F\	.	.	.
4d- 4B- 4F\	.	12ddd-]L 12dd-\]	.
.	.	(12bb- 12b-\	.
.	.	12ffJ 12f\	.
4G 4E-X 4D-X\	.	8.ggL 8.g\	.
.	.	16bb-Jk 16b-\	.
!!LO:LB:g=original
=66	=66	=66	=66
*xywh-15:284,2485,3686,844	*	*xywh-15:284,2485,3686,844	*
4C 4CC/	.	[2ee-X [2e-X/)	.
12cL 12A-X 12E-X\	.	.	.
12c 12A- 12E-\	.	.	.
12cJ 12A- 12E-\	.	.	.
4c 4A- 4E-\	.	8.ee-]L 8.e-/]	.
.	.	(16ee-Jk 16e-/	<
4c 4A- 4En\	.	8.aa-XL 8.a-X\)	.
.	.	16ggJk 16g\	[
=67	=67	=67	=67
4DD-X/	.	(2ff (2f\	.
12B-L 12A-X 12D-X\	.	.	.
12B- 12A- 12D-\	.	.	.
12B-J 12A- 12D-\	.	.	.
4B- 4A- 4D-\	.	12ffL 12f\))	.
.	.	(12een 12en\	.
.	.	12ffJ 12f\	.
4B- 4A- 4Dn\	.	12ggL 12g\	.
.	.	12bb- 12b-\	.
.	.	12aa-XJ 12a-X\	.
=68	=68	=68	=68
4E-X 4EE-X/	.	2.gg 2.g\)	.
8.B-L 8.G 8.E-\	.	.	.
16B-Jk 16G 16E-\	.	.	.
4B- 4G 4E-\	.	.	.
4d-X 4G 4E-\	.	(8.bb-L 8.b-\	.
.	.	16ddd-XJk 16dd-X\	.
!!LO:LB:g=original
=69	=69	=69	=69
*xywh-15:272,3286,3706,949	*	*xywh-15:272,3286,3706,949	*
!	!	!LO:TX:b:i:t=cresc.	!
4En 4EEn/	.	2.ccc 2.cc\)	.
8.cL 8.B- 8.E\	.	.	.
16cJk 16B- 16E\	.	.	.
4c 4B- 4E\	.	.	.
4c 4B- 4E\	.	8.gggL 8.gg\	.
.	.	16bbb-Jk 16bb-\	.
=70	=70	=70	=70
4F 4FF/	.	(2aaa-X (2aa-X\	.
12cL 12A-X 12F\	.	.	.
12c 12A- 12F\	.	.	.
12cJ 12A- 12F\	.	.	.
4c 4A- 4F\	.	12aaa-L 12aa-\))	.
.	.	12ggg 12gg'\	.
.	.	12fffJ 12ff'\	.
4e-X 4An 4F#X\	.	12eee-XL 12ee-X'\	.
.	.	12ddd 12dd'\	.
.	.	12cccJ 12cc'\	.
=71	=71	=71	=71
!	!	!LO:TX:b:i:t=poco string.	!
4GG/	.	(2bbn (2bn\	.
8.dL 8.Bn 8.G\	.	.	.
16dJk 16B 16G\	.	.	.
4d 4B 4G\	.	12bbL 12b\))	.
.	.	12ddd 12dd'\	.
.	.	12fffJ 12ff'\	.
(4e-X 4An 4F#X\	.	12eee-XL 12ee-X'\	.
.	.	12ddd 12dd'\	.
.	.	12cccJ 12cc'\	.
!!LO:LB:g=original
=72	=72	=72	=72
*xywh-15:260,4209,3733,1043	*	*xywh-15:260,4209,3733,1043	*
12dL 12Bn 12G\)	.	12bbnL 12bn\	ff
12D'\	.	12dd 12d'\	.
12F'\J	.	12ffJ 12f'\	.
12E-X'\L	.	12ee-XL 12e-X'/	.
12D'\	.	12dd 12d'/	.
12C\J	.	12ccJ 12c'/	.
12BBn'/L	.	12bnL 12Bn'/	.
12E-'/	.	12ee- 12e-'/	.
12D'/J	.	12ddJ 12d'/	.
12C'/L	.	12ccL 12c'/	.
12BB-X'/	.	12b-X 12B-X'/	.
12AA-X'/J	.	12a-XJ 12A-X'/	.
=73	=73	=73	=73
!	!	!LO:TX:a:t=Tempo I.	!
8GG/	.	8g 8G/	.
8r	.	8r	.
*tremolo	*	*	*
32GGG/LLL	.	2g 2G/	.
32GG/	.	.	.
32GGG/	.	.	.
32GG/	.	.	.
32GGG/	.	.	.
32GG/	.	.	.
32GGG/	.	.	.
32GG/	.	.	.
32GGG/	.	.	.
32GG/	.	.	.
32GGG/	.	.	.
32GG/	.	.	.
32GGG/	.	.	.
32GG/	.	.	.
32GGG/	.	.	.
32GG/	.	.	.
32GGG/	.	8.gL 8.G/	<
32GG/	.	.	.
32GGG/	.	.	.
32GG/	.	.	.
32GGG/	.	.	.
32GG/	.	.	.
32GGG/	.	16gJk 16G/	.
32GG/JJJ	.	.	.
=74	=74	=74	=74
32GGG/LLL	.	4g 4G/	.
32GG/	.	.	.
32GGG/	.	.	.
32GG/	.	.	.
32GGG/	.	.	.
32GG/	.	.	.
32GGG/	.	.	.
32GG/	.	.	.
32GGG/	.	8.gL 8.G/	.
32GG/	.	.	.
32GGG/	.	.	.
32GG/	.	.	.
32GGG/	.	.	.
32GG/	.	.	.
32GGG/	.	16gJk 16G/	.
32GG/JJJ	.	.	.
32GGG/LLL	.	4g 4G/	.
32GG/	.	.	.
32GGG/	.	.	.
32GG/	.	.	.
32GGG/	.	.	.
32GG/	.	.	.
32GGG/	.	.	.
32GG/	.	.	.
32GGG/	.	8.gL 8.G/	.
32GG/	.	.	.
32GGG/	.	.	.
32GG/	.	.	.
32GGG/	.	.	.
32GG/	.	.	.
32GGG/	.	16gJk 16G/	.
32GG/JJJ	.	.	[
!!LO:PB:g=original
=75||	=75||	=75||	=75||
*k[]	*	*k[]	*
*	*	*^	*
*xywh-16:344,621,3784,871	*	*xywh-16:344,621,3784,871	*xywh-16:344,621,3784,871	*
8GGG/	.	4g 4G/	4ryy	.
8r	.	.	.	.
4BB 4BBB/	.	8.gL 8.G/	4d\	p
.	.	16g/Jk	.	.
4C 4CC/	.	4g 4e 4G/	2ryy	.
4BB 4BBB/	.	4g 4d 4G/	.	.
*	*	*v	*v	*
=76	=76	=76	=76
4AA 4AAA/	.	[2cc [>2e [2c^/	.
(4GG#X (4GGG#X/	.	.	.
8.AAL 8.AAA/))	.	8.cc]L 8.e] 8.c/]	.
16BBJk 16BBB/	.	16bJk 16e 16d/	.
[4C [4CC/	.	8.aL 8.e 8.c/	.
.	.	16gJk 16e 16B/	.
=77	=77	=77	=77
*	*	*^	*
*	*	*	*xywh-16:344,621,3784,871	*
4C] 4CC/]	.	4f#X 4e/ 4A/	4ryy	.
4BB 4BBB/	.	8.f#L 8.e 8.B/	4ryy	.
.	.	16f#Jk 16e 16B/	.	.
4AA 4AAA/	.	4f#/	4e 4c\	.
4BB 4BBB/	.	8.g/L	4d#X 4B\	.
.	.	16a/Jk	.	.
*	*	*v	*v	*
=78	=78	=78	=78
(4E (4EE/	.	[2g [>2e [2B/	.
8.FnL 8.FFn/))	.	.	.
16FJk 16FF/	.	.	.
4E 4EE/	.	8.g]L 8.e] 8.B/]	.
.	.	16bK 16g 16B/	<
4D 4DD/	.	8.cc 8.f 8.c/	.
.	.	16ddJk 16f 16d/	[[
!!LO:LB:g=original
=79	=79	=79	=79
*xywh-16:332,1446,3811,738	*	*xywh-16:332,1446,3811,738	*
!	!	!LO:TX:b:i:t=poco cresc.	!
4C 4CC/	.	[2ee [>2g [2e/	.
8.DL 8.DD/	.	.	.
16DJk 16DD/	.	.	.
4E 4EE/	.	8.ee]L 8.g] 8.e/]	.
.	.	16ddK 16g 16d/	.
4F#X 4FF#X/	.	8.cc 8.e 8.c/	.
.	.	16aJk 16e-X 16c/	.
=80	=80	=80	=80
*	*	*^	*
*	*	*	*xywh-16:332,1446,3811,738	*
4G 4GG/	.	4g/	4d 4B\	.
4Fn 4FFn/	.	8.g/L	4d 4B\	.
.	.	16g/Jk	.	.
4E 4EE/	.	8.gL 8.c 8.G/	2ryy	.
.	.	16bK 16g 16B/	.	.
4D 4DD/	.	8.cc 8.f 8.c/	.	.
.	.	16ddJk 16f 16d/	.	.
=81	=81	=81	=81	=81
4C 4CC/	.	[2ee/	4g 4e\	.
8.GG#XL 8.GGG#X/	.	.	(<4b (<4f\	.
16GG#Jk 16GGG#/	.	.	.	.
4AA 4AAA/	.	8.ee]L 8.cc/)	[<4e\)	.
.	.	16ddK 16b/	.	.
4FF#X 4FFF#X/	.	8.cc 8.a/ 8.e/L]	4ryy	.
.	.	16aJk 16e-X/ 16c/Jk	.	.
=82	=82	=82	=82	=82
4GG 4GGG/	.	4g/	4B\	.
4F 4FF/	.	8.g/L	(4d 4B\	.
.	.	16g/Jk	.	.
4E 4EE/	.	4g/	4c\)	.
4D 4DD/	.	8.b-XL 8.B-X/	4g 4e\	.
.	.	16aJk 16A/	.	.
*	*	*v	*v	*
!!LO:LB:g=original
=83	=83	=83	=83
*xywh-16:328,2162,3827,738	*	*xywh-16:328,2162,3827,738	*
4C#X 4CC#X/	.	4a 4g 4A/	.
8.AAL 8.AAA^/	.	[4gg [4a [4g^\	f
16BBJk 16BBB/	.	.	.
4C# 4CC#/	.	8.gg]L 8.a] 8.g\]	.
.	.	16ggJk 16a 16g\	.
4AA 4AAA/	.	8.ggL 8.a 8.g\	.
.	.	16ggJk 16a 16g\	.
=84	=84	=84	=84
4D 4DD/	.	4ff 4a 4f'\	.
4E 4EE/	.	4ee 4a 4g'\	.
4F 4FF/	.	4dd 4a 4f'/	.
4F#X 4FF#X/	.	(>4cc 4a ([4et/	.
.	.	16qqb/LL	.
.	.	16qqcc/JJ	.
=85	=85	=85	=85
*	*	*^	*
*	*	*	*xywh-16:328,2162,3827,738	*
4G 4GG/	.	4ee/)	4g 4e\])	.
2GG 2GGG^/	.	8.a^/L	(4f#X (4e-X\	.
.	.	16cc/Jk	.	.
.	.	4b/	4fn 4d/))	>
4G 4GG/	.	(8.a/L	4f 4d\	.
.	.	16b/Jk	.	]
*	*	*v	*v	*
=86	=86	=86	=86
8C 8CC/	.	8cc 8e 8c/)	.
8r	.	8r	.
4c 4C\	.	8.ccL 8.g 8.e/	p
.	.	16ccJk 16g 16e/	.
4C 4CC/	.	8.ccL 8.g 8.e/	.
.	.	(16e/Jk	.
4r	.	8.eeL 8.cc\)	.
.	.	16eeJk 16cc\	.
!!LO:LB:g=original
=87	=87	=87	=87
*xywh-16:509,2865,3549,719	*	*xywh-16:509,2865,3549,719	*
4A 4AA\	.	(4ee 4cc\	mf
2a 2F^<\	.	8.dd#XL 8.b\)	.
.	.	16dd#Jk 16b\	.
.	.	4ee 4cc\	.
8.gL 8.G\	.	4dd# 4b\	.
16fJk 16F\	.	.	.
=88	=88	=88	=88
*	*	*^	*
*	*	*	*xywh-16:509,2865,3549,719	*
8.eL 8.E\	.	4ee\ 4cc\	4ryy	.
16dK 16D\	.	.	.	.
8.c 8.C\	.	2aa 2ee/	8.a\L	.
16BJk 16BB\	.	.	16b\Jk	.
4A 4AA\	.	.	4cc\	<
4d 4D\	.	(8.ggL 8.dd/	4a\	[[
.	.	16ff/Jk	.	.
*	*	*v	*v	*
=89	=89	=89	=89
4e 4E\	.	4ee 4b 4g#X\)	.
8.EL 8.EE/	.	4dd 4a 4f'/	p
16EJk 16EE/	.	.	.
4E 4EE/	.	4cc 4g# 4e'/	.
4E 4EE/	.	4b 4g# 4d'/	.
=90	=90	=90	=90
4AA 4AAA/	.	[2a [>2e [2c/	<
8.AL 8.AA\	.	.	.
16FJk 16FF\	.	.	.
8.EL 8.EE/	.	8.a]L 8.e] 8.c/]	.
16DK 16DD/	.	(16e/Jk	.
8.C 8.CC/	.	8.eeL 8.cc\)	.
16BBJk 16BBB/	.	16eeJk 16cc\	[[
!!LO:LB:g=original
=91	=91	=91	=91
*xywh-16:501,3538,3596,809	*	*xywh-16:501,3538,3596,809	*
4AA 4AAA/	.	4ee 4cc\	f
2a 2F^<\	.	(4dd#X 4b\	.
.	.	4ee 4cc\)	.
8.gL 8.G\	.	(4dd# 4b\	.
16fJk 16F\	.	.	.
=92	=92	=92	=92
*	*	*^	*
*	*	*	*xywh-16:501,3538,3596,809	*
8.eL 8.E\	.	4ee\ 4cc\)	4ryy	.
16dK 16D\	.	.	.	.
8.c 8.C\	.	[4aa 4ee/	8.a\L	.
16BJk 16BB\	.	.	16b\Jk	.
4A 4AA\	.	8.aa/L]	4ee 4cc\	.
.	.	16gg/Jk	.	.
((4c 4C\	.	8.ff#X/L	[4a\	.
.	.	16ee/Jk	.	.
=93	=93	=93	=93	=93
4B 4BB\))	.	4dd#X/	4a\]	p
8.cL 8.C\	.	8.ee/L	8.a\L	.
16AJk 16AA\	.	16ff#X/Jk	16cc\Jk	.
4B 4BB\	.	4b/	4g\	.
4BB 4BBB/	.	4dd#/	(<4aT\	.
.	.	.	16qqg/LL	.
.	.	.	16qqa/JJ	.
*	*	*v	*v	*
=94	=94	=94	=94
4E 4EE/	.	[2ee [2g\)	.
4e 4E\	.	.	.
4E 4EE/	.	8.ee]L 8.g/]	.
.	.	([>16e/K	<
4r	.	8.g 8.e/])	.
.	.	16aJk 16f#X/	[[
!!LO:LB:g=original
=95	=95	=95	=95
*xywh-16:489,4273,3631,887	*	*xywh-16:489,4273,3631,887	*
4r	.	[2b [2g/	.
(4d#X\	>	.	.
4e\)	]	8.b]L 8.g/]	.
.	.	([>16g/Jk	.
4r	.	8.bL 8.g/])	.
.	.	(16ccJk 16a/	.
=96	=96	=96	=96
*	*	*^	*
*	*	*	*xywh-16:489,4273,3631,887	*
4r	.	[2dd/)	4b\	.
(4A#X (4AA#X\	.	.	(4f#X\	>
!	!	!LO:TX:b:i:t=cresc. poco a poco	!	!
4B 4BB\))	.	8.dd/L]	8g\)	.
.	.	.	8ryy	]
.	.	16g/Jk	.	.
4r	.	8.ddL 8.b 8.d/	4ryy	.
.	.	16eeJk 16cc#X 16e/	.	.
=97	=97	=97	=97	=97
4r	.	[2ff [<2f/	4dd\	.
!	!	!	!	!LO:DY:a
(4A (4AA\	.	.	(4cc#X\	>
4B-X 4BB-X\))	.	8.ff]L 8.dd) 8.f\]	2r)yy	]]
.	.	([<16f\Jk	.	.
4r	.	8.ffL 8.dd 8.f\])	.	.
.	.	16ffJk 16dd 16f\	.	.
=98	=98	=98	=98	=98
4r	.	[2ff [<2f/	4dd\	.
(4AA 4AAA/	.	.	(4cc#X\	.
4BB-X 4BBB-X/)	.	(4ff] (4f\]	4dd\)	.
4AA-X 4AAA-X/	.	8.ff#XL 8.ccn 8.f#X/))	4ryy	.
.	.	16ff#Jk 16cc 16f#/	.	.
*	*	*v	*v	*
!!LO:PB:g=original
=99	=99	=99	=99
*xywh-17:261,693,3632,877	*	*xywh-17:261,693,3632,877	*
4GG 4GGG/	.	4gg 4b 4g\	f
32AA-X\LLL	.	(4ff#X 4cc 4f#X\	.
32A-X\	.	.	.
32AA-\	.	.	.
32A-\	.	.	.
32AA-\	.	.	.
32A-\	.	.	.
32AA-\	.	.	.
32A-\JJJ	.	.	.
4G 4GG/	.	4gg 4b 4g\)	.
4AA- 4AAA-X/	.	4ccc 4ff# 4cc\	.
=100	=100	=100	=100
*	*	*^	*
*	*	*	*xywh-17:261,693,3632,877	*
4GG 4GGG/	.	4bb 4gg 4dd 4b\	4ryy	ff
4r	.	8.gL 8.G/	4ryy	.
.	.	16gJk 16G/	.	.
4r	.	[2g [<2G/	4rdd	.
4F 4FF/	.	.	4d/	.
=101	=101	=101	=101	=101
4E 4EE/	.	4g] 4c 4G/]	4ryy	.
4D 4DD/	.	8.gL 8.G/	4f\	.
.	.	16gJk 16G/	.	.
4C 4CC/	.	4g 4e 4G/	4ryy	.
4BB 4BBB/	.	4g 4d 4G/	4ryy	.
*	*	*v	*v	*
=102	=102	=102	=102
4AA 4AAA/	.	[2cc [>2e [2c/	.
(4GG#X (4GGG#X/	.	.	.
8.AAL 8.AAA/))	.	8.cc]L 8.e] 8.c/]	.
16BBJk 16BBB/	.	16bK 16e 16d/	.
[4C [4CC/	.	8.a 8.e 8.c/	.
.	.	16gJk 16e 16B/	.
!!LO:LB:g=original
=103	=103	=103	=103
*	*	*^	*
*xywh-17:249,1567,3643,708	*	*xywh-17:249,1567,3643,708	*xywh-17:249,1567,3643,708	*
4C] 4CC/]	.	4f#X 4e 4A/	4ryy	>
4BB 4BBB/	.	8.f#L 8.e 8.B/	4ryy	.
.	.	16f#Jk 16e 16B/	.	.
4AA 4AAA/	.	4f# 4e 4c/	4ryy	]]
4BB 4BBB/	.	(8.g/L	4d#X 4B\	.
.	.	16a/Jk	.	.
*	*	*v	*v	*
=104	=104	=104	=104
(4E (4EE/	.	[2g [>2e [2B/)	.
8.FnL 8.FFn/))	.	.	.
16FJk 16FF/	.	.	.
4E 4EE/	.	8.g]L 8.e] 8.B/]	<
.	.	16bK 16g 16B/	.
4D 4DD/	.	8.cc 8.f 8.c/	.
.	.	16ddJk 16f 16d/	[[
=105	=105	=105	=105
4C 4CC/	.	[2ee [>2g [2e/	.
8.DL 8.DD/	.	.	.
16DJk 16DD/	.	.	.
4E 4EE/	.	8.ee]L 8.g] 8.e/]	.
.	.	16ddK 16g 16d/	.
4F#X 4FF#X/	.	8.cc 8.e 8.c/	.
.	.	16aJk 16e-X 16c/	.
=106	=106	=106	=106
*	*	*^	*
*	*	*	*xywh-17:249,1567,3643,708	*
4G 4GG/	.	4g 4d 4B/	4ryy	.
4Fn 4FFn/	.	8.g/L	4d 4B\	.
.	.	16g/Jk	.	.
4E 4EE/	.	8.gL 8.c 8.G/	2ryy	.
.	.	16bK 16g 16B/	.	.
4D 4DD/	.	8.cc 8.f 8.c/	.	.
.	.	16ddJk 16f 16d/	.	.
!!LO:LB:g=original
=107	=107	=107	=107	=107
*xywh-17:213,2228,3710,747	*	*xywh-17:213,2228,3710,747	*xywh-17:213,2228,3710,747	*
4C 4CC/	.	[2ee/	4g 4e\	.
8.GG#L 8.GGG#/	.	.	((<4b (4f\	.
16GG#Jk 16GGG#/	.	.	.	.
4AA 4AAA/	.	8.ee]L 8.cc/))	(4e\)	.
.	.	16ddK 16b/	.	.
4FF#X 4FFF#X/	.	8.cc 8.a 8.e/)	4ryy	.
.	.	16aJk 16e-X 16c/	.	.
=108	=108	=108	=108	=108
4GG 4GGG/	.	4g/ 4d 4B/	4ryy	.
(4Fn (4FFn/	.	8.g/L	(<4d 4B\	.
.	.	16g/Jk	.	.
4E 4EE/))	.	4g/ 4c/)	4ryy	.
4D 4DD/	.	8.b-XL 8.B-X/	4g 4e\	.
.	.	16aJk 16A/	.	.
*	*	*v	*v	*
=109	=109	=109	=109
4C#X 4CC#X/	.	4a 4g 4A/	.
8.AAL 8.AAA/	.	[4gg [4a [4g\	.
16BBJk 16BBB/	.	.	.
4C# 4CC#/	.	8.gg]L 8.a] 8.g\]	.
.	.	16ggK 16a 16g\	.
4AA 4AAA/	.	8.ff 8.a 8.g\	.
.	.	16eeJk 16a 16g\	.
=110	=110	=110	=110
4D 4DD/	.	4ff 4a 4f'\	.
4E 4EE/	.	4ee 4a 4g'\	.
4F 4FF/	.	4dd 4a 4f'/	.
(4F#X (4FF#X/	.	[4cc 4a 4et/	.
.	.	16qqb/LL	.
.	.	16qqcc/JJ	.
!!LO:LB:g=original
=111	=111	=111	=111
*	*	*^	*
*xywh-17:210,2928,3738,755	*	*xywh-17:210,2928,3738,755	*xywh-17:210,2928,3738,755	*
4G 4GG/))	.	4cc] 4g/ 4e/	4ryy	.
2GG 2GGG/	.	(8.a/L	(4f#X 4e-X\	>
.	.	16cc/Jk	.	.
.	.	4b/)	4fn 4d\)	.
4G 4GG/	.	(8.a/L	4f 4d\	.
.	.	16b/Jk	.	]]
*	*	*v	*v	*
=112||	=112||	=112||	=112||
8C 8CC/	.	8cc 8e 8c/)	.
8r	.	8r	.
32CC/LLL	.	8.ccL 8.g 8.e/	.
32C/	.	.	.
32CC/	.	.	.
32C/	.	.	.
32CC/	.	.	.
32C/	.	.	.
32CC/	.	16ccJk 16g 16e/	<
32C/	.	.	.
32CC/	.	4cc 4g 4e/	.
32C/	.	.	.
32CC/	.	.	.
32C/	.	.	.
32CC/	.	.	.
32C/	.	.	.
32CC/	.	.	.
32C/	.	.	.
32CC/	.	8.ccL 8.c/	.
32C/	.	.	.
32CC/	.	.	.
32C/	.	.	.
32CC/	.	.	.
32C/	.	.	.
32CC/	.	16ccJk 16c/	.
32C/JJJ	.	.	[[
=113	=113	=113	=113
32CC/L	.	4cc 4c/	ff
32C/	.	.	.
32CC/	.	.	.
32C/	.	.	.
32CC/	.	.	.
32C/	.	.	.
32CC/	.	.	.
32C/	.	.	.
32CC/	.	8r	.
32C/	.	.	.
32CC/	.	.	.
32C/	.	.	.
32CC/	.	16eLL 16c/	.
32C/	.	.	.
32CC/	.	16eJJ 16c/	.
32C/J	.	.	.
32CC/L	.	4.e 4.c/	.
32C/	.	.	.
32CC/	.	.	.
32C/	.	.	.
32CC/	.	.	.
32C/	.	.	.
32CC/	.	.	.
32C/	.	.	.
32CC/	.	.	.
32C/	.	.	.
32CC/	.	.	.
32C/	.	.	.
32CC/	.	16eLL 16c/	.
32C/	.	.	.
32CC/	.	16eJJ 16c/	.
32C/J	.	.	.
=114	=114	=114	=114
4C 4CC/	.	4g 4e 4c/	.
4AA 4AAA/	.	4cc 4a 4e 4c/	.
4AA 4AAA/	.	4cc 4a 4e 4c/	.
4AA 4AAA/	.	4cc 4a 4e 4c/	.
!!LO:LB:g=original
=115	=115	=115	=115
*xywh-17:202,3633,3761,735	*	*xywh-17:202,3633,3761,735	*
32AAA/L	.	4cc 4a 4e 4c/	.
32AA/	.	.	.
32AAA/	.	.	.
32AA/	.	.	.
32AAA/	.	.	.
32AA/	.	.	.
32AAA/	.	.	.
32AA/	.	.	.
32AAA/	.	8r	.
32AA/	.	.	.
32AAA/	.	.	.
32AA/	.	.	.
32AAA/	.	16ccLL 16a 16e/	.
32AA/	.	.	.
32AAA/	.	16ccJJ 16a 16e/	.
32AA/J	.	.	.
32AAA/L	.	8ccL 8a 8e/	.
32AA/	.	.	.
32AAA/	.	.	.
32AA/	.	.	.
32AAA/	.	8cc 8a 8e/	.
32AA/	.	.	.
32AAA/	.	.	.
32AA/	.	.	.
32AAA/	.	8cc 8a 8e/	.
32AA/	.	.	.
32AAA/	.	.	.
32AA/	.	.	.
32AAA/	.	8ccJ 8a 8e/	.
32AA/	.	.	.
32AAA/	.	.	.
32AA/J	.	.	.
=116	=116	=116	=116
4EE 4EEE/	.	4ee 4b 4g 4e/	.
4E 4EE/	.	4ee 4b 4g 4e/	.
4E 4EE/	.	4ee 4b 4g 4e/	.
4E 4EE/	.	4ee 4b 4g 4e/	.
=117	=117	=117	=117
32AAA/L	.	4ee 4cc 4a 4e/	.
32AA/	.	.	.
32AAA/	.	.	.
32AA/	.	.	.
32AAA/	.	.	.
32AA/	.	.	.
32AAA/	.	.	.
32AA/	.	.	.
32AAA/	.	8r	.
32AA/	.	.	.
32AAA/	.	.	.
32AA/	.	.	.
32AAA/	.	16eeLL 16cc 16a 16e/	.
32AA/	.	.	.
32AAA/	.	16eeJJ 16cc 16a 16e/	.
32AA/J	.	.	.
32AAA/L	.	8eeL 8cc 8a 8e/	.
32AA/	.	.	.
32AAA/	.	.	.
32AA/	.	.	.
32AAA/	.	8ee 8cc 8a 8e/	.
32AA/	.	.	.
32AAA/	.	.	.
32AA/	.	.	.
32AAA/	.	8ee 8cc 8a 8e/	.
32AA/	.	.	.
32AAA/	.	.	.
32AA/	.	.	.
32AAA/	.	8eeJ 8cc 8a 8e/	.
32AA/	.	.	.
32AAA/	.	.	.
32AA/J	.	.	.
=118	=118	=118	=118
32EE/LLL	.	4.gg 4.ee 4.b 4.g\	.
32E/	.	.	.
32EE/	.	.	.
32E/	.	.	.
32EE/	.	.	.
32E/	.	.	.
32EE/	.	.	.
32E/	.	.	.
32EE/	.	.	.
32E/	.	.	.
32EE/	.	.	.
32E/	.	.	.
32EE/	.	16ggLL 16ee 16b 16g\	.
32E/	.	.	.
32EE/	.	16ggJJ 16ee 16b 16g\	.
32E/JJJ	.	.	.
4E 4EE/	.	4gg 4ee 4b 4g\	.
4E 4EE/	.	4gg 4ee 4b 4g\	.
!!LO:LB:g=original
=119	=119	=119	=119
*xywh-17:198,4341,3777,912	*	*xywh-17:198,4341,3777,912	*
32GGG/L	.	4.gg 4.ee 4.cc 4.g\	.
32GG/	.	.	.
32GGG/	.	.	.
32GG/	.	.	.
32GGG/	.	.	.
32GG/	.	.	.
32GGG/	.	.	.
32GG/	.	.	.
32GGG/	.	.	.
32GG/	.	.	.
32GGG/	.	.	.
32GG/	.	.	.
32GGG/	.	16ggLL 16ee 16cc 16g\	.
32GG/	.	.	.
32GGG/	.	16ggJJ 16ee 16cc 16g\	.
32GG/J	.	.	.
32GGG/L	.	8ggL 8ee 8cc 8g\	.
32GG/	.	.	.
32GGG/	.	.	.
32GG/	.	.	.
32GGG/	.	8gg 8ee 8cc 8g\	.
32GG/	.	.	.
32GGG/	.	.	.
32GG/	.	.	.
32GGG/	.	8gg 8ee 8cc 8g\	.
32GG/	.	.	.
32GGG/	.	.	.
32GG/	.	.	.
32GGG/	.	8ggJ 8ee 8cc 8g\	.
32GG/	.	.	.
32GGG/	.	.	.
32GG/J	.	.	.
=120	=120	=120	=120
32GGG/L	.	4.gg 4.ff 4.b 4.g\	.
32GG/	.	.	.
32GGG/	.	.	.
32GG/	.	.	.
32GGG/	.	.	.
32GG/	.	.	.
32GGG/	.	.	.
32GG/	.	.	.
32GGG/	.	.	.
32GG/	.	.	.
32GGG/	.	.	.
32GG/	.	.	.
32GGG/	.	16ggLL 16ff 16b 16g\	.
32GG/	.	.	.
32GGG/	.	16ggJJ 16ff 16b 16g\	.
32GG/J	.	.	.
32GGG/L	.	4gg 4ff 4b 4g\	.
32GG/	.	.	.
32GGG/	.	.	.
32GG/	.	.	.
32GGG/	.	.	.
32GG/	.	.	.
32GGG/	.	.	.
32GG/	.	.	.
32GGG/	.	4gg 4ff 4b 4g\	.
32GG/	.	.	.
32GGG/	.	.	.
32GG/	.	.	.
32GGG/	.	.	.
32GG/	.	.	.
32GGG/	.	.	.
32GG/J	.	.	.
=121	=121	=121	=121
32CC/LLL	.	4.ccc 4.gg 4.ee 4.cc\	.
32C/	.	.	.
32CC/	.	.	.
32C/	.	.	.
32CC/	.	.	.
32C/	.	.	.
32CC/	.	.	.
32C/	.	.	.
32CC/	.	.	.
32C/	.	.	.
32CC/	.	.	.
32C/	.	.	.
32CC/	.	16cccLL 16gg 16ee 16cc\	.
32C/	.	.	.
32CC/	.	16cccJJ 16gg 16ee 16cc\	.
32C/JJJ	.	.	.
4C 4CC/	.	4ccc 4gg 4ee 4cc\	.
8.CL 8.GG 8.CC/	.	8.cccL 8.gg 8.ee 8.cc\	.
16CJk 16GG 16CC/	.	16cccJk 16gg 16ee 16cc\	.
=122	=122	=122	=122
4C 4GG 4CC/	.	4ccc 4gg 4ee 4cc\	.
4C 4GG 4CC/	.	4ccc 4gg 4ee 4cc\	.
4C 4GG 4CC/	.	4ccc 4gg 4ee 4cc\	.
4C 4GG 4CC/	.	4ccc 4gg 4ee 4cc\	.
=123	=123	=123	=123
32GGL 32CC/	.	1ccc 1gg 1ee 1cc;	.
32C/	.	.	.
32GG 32CC/	.	.	.
32C/	.	.	.
32GG 32CC/	.	.	.
32C/	.	.	.
32GG 32CC/	.	.	.
32C/	.	.	.
32GG 32CC/	.	.	.
32C/	.	.	.
32GG 32CC/	.	.	.
32C/	.	.	.
32GG 32CC/	.	.	.
32C/	.	.	.
32GG 32CC/	.	.	.
32C/J	.	.	.
32GGL 32CC;</	.	.	.
32C/	.	.	.
32GG 32CC/	.	.	.
32C/	.	.	.
32GG 32CC/	.	.	.
32C/	.	.	.
32GG 32CC/	.	.	.
32C/	.	.	.
32GG 32CC/	.	.	.
32C/	.	.	.
32GG 32CC/	.	.	.
32C/	.	.	.
32GG 32CC/	.	.	.
32C/	.	.	.
32GG 32CC/	.	.	.
!	!	!LO:TX:b:i:t=Fine.	!
32C;/J	.	.	.
==	==	==	==
*-	*-	*-	*-
!!!RDF**kern: < = below
!!!RDF**kern: > = above
!!!system-decoration: {(s1,s2)}
!!!ENC: Marta Opryszak
!!!END: 2022-03-25
!!!ENC: Urszula Świątek
!!!END: 2022-03-27
!!!ENC-iiif: Emilia Ziętek
!!!END-iiif: 2022-08-22
